X:1
T:9 Lieder und Gesänge, Op.32
T:Bitteres zu sagen denkst du
T:7. Bitteres zu sagen denkst du
T:Johannes Brahms
T:Georg Friedrich Daumer, after Hafiz
T:9 Lieder und Gesänge, Op.32
T:Creative Commons copyright waiver (CC0 1.0 Universal) 
T:Creative Commons copyright waiver (CC0 1.0 Universal) 
C:Johannes Brahms
Z:Georg Friedrich Daumer (after Hafiz)
Z:Creative Commons copyright waiver (CC0 1.0 Universal)
Z:
L:1/8
M:4/4
K:F
V:1 treble nm="Voice" snm="Vo."
V:1
 z8 | z8 | A3 A A2 c2 | e3 d d2 c2 | c2 _d2 g2 c2 | f3 e e2 A2 | c2 =d2 _A2 G2 | _B3 _A A2 G2 | %8
w: ||Bit- te- res zu|sa- gen denkst du;|a- ber nun und|nim- mer kränkst du,|ob du noch so|bö- se bist. *|
 G3 G G2 _A2 | _d3 c c2 B2 | B3 B B2 c2 | f3 _e e2 d2 | z2 d4 d2 | z2 d4 e2 | g6 e2 | d4 c2 z2 | %16
w: Dei- ne her- ben|Re- de- ta- ten|schei- tern an ko-|rall- ner Klip- pe,|schei- tern|an ko-|rall- ner|Klip- pe,|
 A3 A A2 c2 | e3 d d2 c2 | c2 _d2 g2 c2 | A2 B2 e2 A2 | c2 d2 _A3 G | G2 =A2 c2 B2 | B2 c2 _e2 d2 | %23
w: wer- den all zu|rei- nen Gna- den,|denn sie müs- sen,|um zu scha- den,|schif- fen ü- ber|ei- ne Lip- pe,|die die Sü- sse|
 g6 B2 | A2 A4 f2 | f4 G4 | c6 E2 | F4 z4 | z8 | z8 | z8 | z8 |] %32
w: sel- ber|ist, die die|Sü- sse|sel- ber|ist.|||||

